flaticon/monuments/great-wall-of-china.svg

<svg xmlns="http://www.w3.org/2000/svg" width="32" height="32" viewBox="0 0 24 24">
    <path d="M 23.601562 18.800781 L 23.601562 13.199219 C 23.601562 12.960938 23.441406 12.800781 23.199219 12.800781 C 22.960938 12.800781 22.800781 12.960938 22.800781 13.199219 L 22.800781 14 L 22 14 L 22 13.199219 C 22 12.960938 21.839844 12.800781 21.601562 12.800781 C 21.359375 12.800781 21.199219 12.960938 21.199219 13.199219 L 21.199219 14 L 20.398438 14 L 20.398438 13.199219 C 20.398438 12.960938 20.238281 12.800781 20 12.800781 C 19.761719 12.800781 19.601562 12.960938 19.601562 13.199219 L 19.601562 14 L 18.800781 14 L 18.800781 13.199219 C 18.800781 12.960938 18.640625 12.800781 18.398438 12.800781 C 18.160156 12.800781 18 12.960938 18 13.199219 L 18 14 L 17.199219 14 L 17.199219 13.199219 C 17.199219 12.960938 17.039062 12.800781 16.800781 12.800781 C 16.558594 12.800781 16.398438 12.960938 16.398438 13.199219 L 16.398438 14 L 15.601562 14 L 15.601562 9.601562 C 15.601562 9.359375 15.441406 9.199219 15.199219 9.199219 L 14.800781 9.199219 L 14.800781 7.199219 C 14.800781 7.078125 14.761719 7 14.679688 6.921875 L 12.28125 4.519531 C 12.121094 4.359375 11.878906 4.359375 11.71875 4.519531 L 9.320312 6.921875 C 9.238281 7 9.199219 7.078125 9.199219 7.199219 L 9.199219 9.199219 L 8.800781 9.199219 C 8.558594 9.199219 8.398438 9.359375 8.398438 9.601562 L 8.398438 14 L 7.601562 14 L 7.601562 13.199219 C 7.601562 12.960938 7.441406 12.800781 7.199219 12.800781 C 6.960938 12.800781 6.800781 12.960938 6.800781 13.199219 L 6.800781 14 L 6 14 L 6 13.199219 C 6 12.960938 5.839844 12.800781 5.601562 12.800781 C 5.359375 12.800781 5.199219 12.960938 5.199219 13.199219 L 5.199219 14 L 4.398438 14 L 4.398438 13.199219 C 4.398438 12.960938 4.238281 12.800781 4 12.800781 C 3.761719 12.800781 3.601562 12.960938 3.601562 13.199219 L 3.601562 14 L 2.800781 14 L 2.800781 13.199219 C 2.800781 12.960938 2.640625 12.800781 2.398438 12.800781 C 2.160156 12.800781 2 12.960938 2 13.199219 L 2 14 L 1.199219 14 L 1.199219 13.199219 C 1.199219 12.960938 1.039062 12.800781 0.800781 12.800781 C 0.558594 12.800781 0.398438 12.960938 0.398438 13.199219 L 0.398438 18.800781 C 0.160156 18.800781 0 18.960938 0 19.199219 C 0 19.441406 0.160156 19.601562 0.398438 19.601562 L 23.601562 19.601562 C 23.839844 19.601562 24 19.441406 24 19.199219 C 24 18.960938 23.839844 18.800781 23.601562 18.800781 Z M 8.398438 15.601562 L 8.398438 18.800781 L 1.199219 18.800781 L 1.199219 14.800781 L 8.398438 14.800781 Z M 10 7.359375 L 12 5.359375 L 14 7.359375 L 14 9.199219 L 13.179688 9.199219 L 13.199219 8.398438 C 13.199219 7.71875 12.679688 7.199219 12 7.199219 C 11.320312 7.199219 10.800781 7.761719 10.800781 8.398438 L 10.78125 9.199219 L 10 9.199219 Z M 12.398438 9.199219 L 11.601562 9.199219 L 11.601562 8.398438 C 11.601562 8.160156 11.761719 8 12 8 C 12.238281 8 12.398438 8.199219 12.398438 8.398438 Z M 9.199219 10 L 14.800781 10 L 14.800781 10.800781 L 9.199219 10.800781 Z M 9.199219 14.398438 L 9.199219 13.601562 C 9.199219 13.359375 9.359375 13.199219 9.601562 13.199219 C 9.839844 13.199219 10 13.398438 10 13.601562 L 10 14.800781 L 9.199219 14.800781 Z M 14.800781 18.800781 L 9.199219 18.800781 L 9.199219 15.601562 L 14.800781 15.601562 Z M 10.800781 14.800781 L 10.800781 13.601562 C 10.800781 13.359375 10.960938 13.199219 11.199219 13.199219 C 11.441406 13.199219 11.601562 13.398438 11.601562 13.601562 L 11.601562 14.800781 Z M 12.429688 13.433594 C 12.484375 13.289062 12.621094 13.199219 12.800781 13.199219 C 13.039062 13.199219 13.199219 13.398438 13.199219 13.601562 L 13.175781 14.800781 L 12.417969 14.800781 L 12.441406 13.601562 C 12.441406 13.542969 12.4375 13.488281 12.429688 13.433594 Z M 14.027344 13.433594 C 14.085938 13.289062 14.21875 13.199219 14.398438 13.199219 C 14.640625 13.199219 14.800781 13.398438 14.800781 13.601562 L 14.800781 14.800781 L 14.015625 14.800781 L 14.039062 13.601562 C 14.039062 13.542969 14.035156 13.488281 14.027344 13.433594 Z M 14.800781 12.464844 C 14.675781 12.421875 14.542969 12.398438 14.398438 12.398438 C 14.101562 12.398438 13.832031 12.507812 13.628906 12.683594 C 13.417969 12.503906 13.144531 12.398438 12.839844 12.398438 C 12.53125 12.398438 12.257812 12.515625 12.046875 12.699219 C 11.835938 12.511719 11.554688 12.398438 11.238281 12.398438 C 10.921875 12.398438 10.640625 12.523438 10.425781 12.71875 C 10.214844 12.519531 9.925781 12.398438 9.601562 12.398438 C 9.457031 12.398438 9.324219 12.425781 9.199219 12.46875 L 9.199219 11.601562 L 14.800781 11.601562 Z M 22.800781 18.800781 L 15.601562 18.800781 L 15.601562 14.800781 L 22.800781 14.800781 Z M 22.800781 18.800781"/>
    <path d="M2.398438 16.398438C2.640625 16.398438 2.800781 16.238281 2.800781 16 2.800781 15.761719 2.640625 15.601562 2.398438 15.601562 2.160156 15.601562 2 15.761719 2 16 2 16.238281 2.160156 16.398438 2.398438 16.398438zM4 16.398438C4.238281 16.398438 4.398438 16.238281 4.398438 16 4.398438 15.761719 4.238281 15.601562 4 15.601562 3.761719 15.601562 3.601562 15.761719 3.601562 16 3.601562 16.238281 3.761719 16.398438 4 16.398438zM5.601562 16.398438C5.839844 16.398438 6 16.238281 6 16 6 15.761719 5.839844 15.601562 5.601562 15.601562 5.359375 15.601562 5.199219 15.761719 5.199219 16 5.199219 16.238281 5.359375 16.398438 5.601562 16.398438zM7.199219 16.398438C7.441406 16.398438 7.601562 16.238281 7.601562 16 7.601562 15.761719 7.441406 15.601562 7.199219 15.601562 6.960938 15.601562 6.800781 15.761719 6.800781 16 6.800781 16.238281 6.960938 16.398438 7.199219 16.398438zM16.800781 16.398438C17.039062 16.398438 17.199219 16.238281 17.199219 16 17.199219 15.761719 17.039062 15.601562 16.800781 15.601562 16.558594 15.601562 16.398438 15.761719 16.398438 16 16.398438 16.238281 16.558594 16.398438 16.800781 16.398438zM18.398438 16.398438C18.640625 16.398438 18.800781 16.238281 18.800781 16 18.800781 15.761719 18.640625 15.601562 18.398438 15.601562 18.160156 15.601562 18 15.761719 18 16 18 16.238281 18.160156 16.398438 18.398438 16.398438zM20 16.398438C20.238281 16.398438 20.398438 16.238281 20.398438 16 20.398438 15.761719 20.238281 15.601562 20 15.601562 19.761719 15.601562 19.601562 15.761719 19.601562 16 19.601562 16.238281 19.761719 16.398438 20 16.398438zM21.601562 16.398438C21.839844 16.398438 22 16.238281 22 16 22 15.761719 21.839844 15.601562 21.601562 15.601562 21.359375 15.601562 21.199219 15.761719 21.199219 16 21.199219 16.238281 21.359375 16.398438 21.601562 16.398438zM21.601562 16.398438"/>
</svg>

<svg xmlns="http://www.w3.org/2000/svg" width="32" height="32" viewBox="0 0 24 24">
    <path d="M23.602 18.8v-5.6c0-.24-.16-.4-.403-.4-.238 0-.398.16-.398.4v.8H22v-.8c0-.24-.16-.4-.398-.4-.243 0-.403.16-.403.4v.8h-.8v-.8c0-.24-.16-.4-.399-.4-.238 0-.398.16-.398.4v.8H18.8v-.8c0-.24-.16-.4-.403-.4-.238 0-.398.16-.398.4v.8h-.8v-.8c0-.24-.16-.4-.4-.4-.241 0-.402.16-.402.4v.8h-.796V9.602c0-.243-.16-.403-.403-.403h-.398v-2c0-.12-.04-.199-.121-.277L12.28 4.52a.39.39 0 0 0-.562 0L9.32 6.922a.348.348 0 0 0-.12.277v2h-.4c-.241 0-.402.16-.402.403V14h-.796v-.8c0-.24-.16-.4-.403-.4-.238 0-.398.16-.398.4v.8H6v-.8c0-.24-.16-.4-.398-.4-.243 0-.403.16-.403.4v.8h-.8v-.8c0-.24-.16-.4-.399-.4-.238 0-.398.16-.398.4v.8H2.8v-.8c0-.24-.16-.4-.403-.4-.238 0-.398.16-.398.4v.8h-.8v-.8c0-.24-.16-.4-.4-.4-.241 0-.402.16-.402.4v5.6c-.238 0-.398.16-.398.4 0 .241.16.402.398.402h23.204c.238 0 .398-.16.398-.403 0-.238-.16-.398-.398-.398zM8.398 15.603V18.8H1.2v-4h7.2zM10 7.359l2-2 2 2V9.2h-.82l.02-.8c0-.68-.52-1.2-1.2-1.2-.68 0-1.2.563-1.2 1.2l-.019.8H10zm2.398 1.84h-.796v-.8c0-.239.16-.399.398-.399a.4.4 0 0 1 .398.398zM9.2 10h5.602v.8H9.199zm0 4.398v-.796c0-.243.16-.403.403-.403a.4.4 0 0 1 .398.403V14.8h-.8zm5.602 4.403H9.199v-3.2h5.602zm-4-4v-1.2c0-.242.16-.402.398-.402.242 0 .403.2.403.403V14.8zm1.629-1.367c.054-.145.191-.235.37-.235a.4.4 0 0 1 .4.403l-.024 1.199h-.758l.023-1.2c0-.058-.004-.113-.011-.167zm1.597 0c.059-.145.192-.235.371-.235.243 0 .403.2.403.403V14.8h-.785l.023-1.2c0-.058-.004-.113-.012-.167zm.774-.97a1.224 1.224 0 0 0-.403-.066c-.296 0-.566.11-.77.286a1.205 1.205 0 0 0-.788-.286 1.2 1.2 0 0 0-.793.301c-.211-.187-.492-.3-.809-.3-.316 0-.597.124-.812.32-.211-.2-.5-.32-.824-.32-.145 0-.278.027-.403.07v-.867h5.602zm8 6.337h-7.2v-4h7.2zm0 0"/>
    <path d="M2.398 16.398c.243 0 .403-.16.403-.398 0-.238-.16-.398-.403-.398-.238 0-.398.16-.398.398 0 .238.16.398.398.398zm0 0M4 16.398c.238 0 .398-.16.398-.398 0-.238-.16-.398-.398-.398-.238 0-.398.16-.398.398 0 .238.16.398.398.398zm0 0M5.602 16.398c.238 0 .398-.16.398-.398 0-.238-.16-.398-.398-.398-.243 0-.403.16-.403.398 0 .238.16.398.403.398zm0 0M7.2 16.398c.241 0 .402-.16.402-.398 0-.238-.16-.398-.403-.398-.238 0-.398.16-.398.398 0 .238.16.398.398.398zm0 0M16.8 16.398c.24 0 .4-.16.4-.398 0-.238-.16-.398-.4-.398-.241 0-.402.16-.402.398 0 .238.16.398.403.398zm0 0M18.398 16.398c.243 0 .403-.16.403-.398 0-.238-.16-.398-.403-.398-.238 0-.398.16-.398.398 0 .238.16.398.398.398zm0 0M20 16.398c.238 0 .398-.16.398-.398 0-.238-.16-.398-.398-.398-.238 0-.398.16-.398.398 0 .238.16.398.398.398zm0 0M21.602 16.398c.238 0 .398-.16.398-.398 0-.238-.16-.398-.398-.398-.243 0-.403.16-.403.398 0 .238.16.398.403.398zm0 0"/>
</svg>
